X:285
T: Mai cai  vgl. Kopie)
N: C0643
O: China, Shanxi
S: MM, !]
N: DOUBLETTE VON CUT 4
N: Kein Grundton angegeben. Doppelt in C0641
R: Xiaodiao. Jiaomai]
M: 2/4
L: 1/16
K: A
b2c2bcb2 | b2c2bb3 | c2baf2a2 | b8
b3eb2b2 | baf2e4 | e3fa2b2 | baf2a4- | a8
cc2BA4 | b2g2f2e2 | A3Be2fe | c3BA4

